www/assets/icons/radio.svg

<svg xmlns="http://www.w3.org/2000/svg" width="24" height="24" viewBox="0 0 24 24" fill='currentColor'><path d="M3.24 6.65C2.51 6.93 2 7.67 2 8.5v12a2 2 0 0 0 2 2h16a2 2 0 0 0 2-2v-12c0-1.11-.89-2-2-2H8.3l8.26-3.34-.68-1.66zM7 20.5c-1.66 0-3-1.34-3-3s1.34-3 3-3 3 1.34 3 3-1.34 3-3 3m13-8h-2v-2h-2v2H4v-4h16z"/></svg>

<svg width="24" height="24" viewBox="0 0 24 24" xmlns="http://www.w3.org/2000/svg" fill='currentColor'><path d="M3.24 6.65C2.51 6.93 2 7.67 2 8.5V20.5C2 21.6 2.89 22.5 4 22.5H20C21.11 22.5 22 21.6 22 20.5V8.5C22 7.39 21.11 6.5 20 6.5H8.3L16.56 3.16L15.88 1.5L3.24 6.65ZM7 20.5C5.34 20.5 4 19.16 4 17.5C4 15.84 5.34 14.5 7 14.5C8.66 14.5 10 15.84 10 17.5C10 19.16 8.66 20.5 7 20.5ZM20 12.5H18V10.5H16V12.5H4V8.5H20V12.5Z"/></svg>
